categories/16/applications-multimedia.svg

<svg width="16" version="1.1" xmlns="http://www.w3.org/2000/svg" height="16" viewBox="0 0 16 16">
<defs id="defs3051">
<style type="text/css" id="current-color-scheme">
.ColorScheme-Text {
color:#4d4d4d;
}
</style>
</defs>
<path style="fill:currentColor;fill-opacity:1;stroke:none" id="path4" d="m 0,0 v 12 h 6 1 v 0.28125 c -0.295,-0.171 -0.635,-0.28125 -1,-0.28125 -1.105,0 -2,0.895 -2,2 0,1.105 0.895,2 2,2 1.105,0 2,-0.895 2,-2 v -2 h 4 v -5 h 3 v 4.28125 c -0.295,-0.171 -0.635,-0.28125 -1,-0.28125 -1.105,0 -2,0.895 -2,2 0,1.105 0.895,2 2,2 1.105,0 2,-0.895 2,-2 v -9 h -4 v -4 h -12 z  m 3,1 h 6 v 3 h -2 v 1 h -4 v -4 z  m -2,1 h 1 v 1 h -1 v -1 z  m 9,0 h 1 v 1 h -1 v -1 z  m 2,3 h 3 v 1 h -3 v -1 z  m -11,.5 h 1 v 1 h -1 v -1 z  m 2,1.5 h 4 v 4 h -4 v -4 z  m 5,0 h 1 v 4 h -1 v -4 z  m -7,2 h 1 v 1 h -1 v -1 z " class="ColorScheme-Text"/>
</svg>

<svg width="16" version="1.1" xmlns="http://www.w3.org/2000/svg" height="16" viewBox="0 0 16 16">
<defs id="defs3051">
<style type="text/css" id="current-color-scheme">
.ColorScheme-Text {
color:#4d4d4d;
}
</style>
</defs>
<path style="fill:currentColor" d="m 0,0 v 12 h 6 1 v 0.28125 C 6.705,12.11025 6.365,12 6,12 c -1.105,0 -2,0.895 -2,2 0,1.105 0.895,2 2,2 1.105,0 2,-0.895 2,-2 v -2 h 4 V 7 h 3 v 4.28125 C 14.705,11.11025 14.365,11 14,11 c -1.105,0 -2,0.895 -2,2 0,1.105 0.895,2 2,2 1.105,0 2,-0.895 2,-2 V 4 H 12 V 0 Z M 3,1 H 9 V 4 H 7 V 5 H 3 Z M 1,2 H 2 V 3 H 1 Z m 9,0 h 1 V 3 H 10 Z M 8,5 h 7 V 6 H 8 Z M 1,5.5 h 1 v 1 H 1 Z M 3,7 h 4 v 4 H 3 Z m 5,0 h 1 v 4 H 8 Z M 1,9 h 1 v 1 H 1 Z" class="ColorScheme-Text"/>
</svg>
